X: 110
T: O'er the Boggie
T: Longways for as many as will.
%R: reel
B: Daniel Wright "Wright's Compleat Collection of Celebrated Country Dances" 1740 p.55
S: http://library.efdss.org/cgi-bin/dancebooks.cgi
Z: 2014 John Chambers <jc:trillian.mit.edu>
N: The tempo and repeat pattern for this tune aren't clear.
M: C|
L: 1/8
K: C	% or perhaps Am
% - - - - - - - - - - - - - - - - - - - - - - - - -
GA |\
c>d cA cGGA | cc (d/c/)(B/A/) G2 zG |\
Ad dc de g>a | (g/a/)(g/e/) (g/e/)(d/c/) A2 |]
GA |\
c2 (e/f/g) c2 (e/f/g) | cc (d/c/)(B/A/) G2 zG |\
Ad dc de g>a | (g/a/)(g/e/) (g/e/)(d/c/) A2 |]
% - - - - - - - - - - - - - - - - - - - - - - - - -
%%begintext align
%% The 1st Cu. leads thro' the 2d Cu. and foots
%% it with the 2d Wo. .| 1st Cu. does the same
%% with the 2d Man :| 1st and 2d Cu. Hands
%% across half round with their right hands .|
%% Back again with their Left :#: 1st Cu. cast
%% off behind the 2d Cu. and foot it .| 1st Cu
%% lead thro' the 3d Cu :| 1st Cu Right and
%% Left quite round with the 2d .| and turn
%% in the 2d Cu. Place :|
%%endtext
% - - - - - - - - - - - - - - - - - - - - - - - - -
%%sep 2 4 300
